X:171
T: JETZT REISEN WIR ZUM THOR HINAUS
N: E0757A
O: Europa, Mitteleuropa, Deutschland, Hessen, Wetterau, Butzbach
R: Abschieds - Lied, Liebe
M: 2/4
L: 1/16
K: G
D2 | D2G2G2G2 | G2B2A2G2 | A6
DF | A2A2A2A2 | A2c2B2A2 | B6
G2 | B2B2B2B2 | B2d2c2
B2 | A2A2A2A2 | A2e2d2
c2 | B2B2A2A2 | A4z2

